Sweet-Rainbow/icons/openbroadcaster.svg

<?xml version="1.0" encoding="UTF-8" standalone="no"?>
<!-- Generator: Gravit.io -->

<svg
   xmlns:dc="http://purl.org/dc/elements/1.1/"
   xmlns:cc="http://creativecommons.org/ns#"
   xmlns:rdf="http://www.w3.org/1999/02/22-rdf-syntax-ns#"
   xmlns:svg="http://www.w3.org/2000/svg"
   xmlns="http://www.w3.org/2000/svg"
   xmlns:sodipodi="http://sodipodi.sourceforge.net/DTD/sodipodi-0.dtd"
   xmlns:inkscape="http://www.inkscape.org/namespaces/inkscape"
   style="isolation:isolate"
   viewBox="0 0 36 36"
   width="48"
   height="48"
   version="1.1"
   id="svg21"
   sodipodi:docname="openbroadcaster.svg"
   inkscape:version="0.92.4 (5da689c313, 2019-01-14)">
  <metadata
     id="metadata27">
    <rdf:RDF>
      <cc:Work
         rdf:about="">
        <dc:format>image/svg+xml</dc:format>
        <dc:type
           rdf:resource="http://purl.org/dc/dcmitype/StillImage" />
        <dc:title></dc:title>
      </cc:Work>
    </rdf:RDF>
  </metadata>
  <defs
     id="defs25" />
  <sodipodi:namedview
     pagecolor="#ffffff"
     bordercolor="#666666"
     borderopacity="1"
     objecttolerance="10"
     gridtolerance="10"
     guidetolerance="10"
     inkscape:pageopacity="0"
     inkscape:pageshadow="2"
     inkscape:window-width="640"
     inkscape:window-height="480"
     id="namedview23"
     showgrid="false"
     inkscape:zoom="29.365243"
     inkscape:cx="25.325443"
     inkscape:cy="32"
     inkscape:current-layer="svg21"
     units="px" />
  <linearGradient
     id="_lgradient_17"
     x1="0"
     y1="0.5"
     x2="1"
     y2="0.5"
     gradientTransform="matrix(27.825,0,0,30.267,12.085,7.03)"
     gradientUnits="userSpaceOnUse">
    <stop
       offset="0%"
       stop-opacity="1"
       style="stop-color:rgb(117,127,154)"
       id="stop2" />
    <stop
       offset="98.69565217391305%"
       stop-opacity="1"
       style="stop-color:rgb(215,221,232)"
       id="stop4" />
  </linearGradient>
  <linearGradient
     id="_lgradient_18"
     x1="12.425303"
     y1="21.214132"
     x2="42.268353"
     y2="21.214132"
     gradientTransform="scale(0.95602927,1.0459931)"
     gradientUnits="userSpaceOnUse">
    <stop
       offset="0%"
       stop-opacity="1"
       style="stop-color:rgb(117,127,154)"
       id="stop7" />
    <stop
       offset="98.69565217391305%"
       stop-opacity="1"
       style="stop-color:rgb(215,221,232)"
       id="stop9" />
  </linearGradient>
  <linearGradient
     id="_lgradient_19"
     x1="0"
     y1="0.5"
     x2="1"
     y2="0.5"
     gradientTransform="scale(48,47.7)"
     gradientUnits="userSpaceOnUse">
    <stop
       offset="0%"
       stop-opacity="1"
       style="stop-color:rgb(117,127,154)"
       id="stop14" />
    <stop
       offset="98.69565217391305%"
       stop-opacity="1"
       style="stop-color:rgb(215,221,232)"
       id="stop16" />
  </linearGradient>
  <g
     id="g839"
     transform="matrix(0.75,0,0,0.75,0,0.28155109)">
    <path
       id="path12"
       stroke-miterlimit="4"
       d="m 13.629,13.687 c 0.586,-2.828 2.503,-5.379 5.081,-6.657 -0.449,0.455 -0.991,0.804 -1.406,1.299 -1.699,1.832 -2.466,4.484 -1.997,6.923 0.591,3.723 4.09,6.764 7.881,6.71 2.94,0.132 5.805,-1.56 7.243,-4.111 3.078,0.105 6.071,1.694 7.828,4.244 0.9,1.332 1.603,2.892 1.651,4.516 -0.57,-2.156 -2.002,-4.074 -3.957,-5.155 -1.89,-1.065 -4.212,-1.336 -6.284,-0.708 -2.598,0.746 -4.745,2.87 -5.485,5.485 -0.628,2.082 -0.359,4.378 0.629,6.284 -1.374,2.381 -3.856,4.079 -6.551,4.591 -2.071,0.434 -4.249,0.099 -6.177,-0.773 1.725,0.504 3.6,0.592 5.315,-0.018 2.3,-0.762 4.201,-2.61 5.037,-4.889 0.927,-2.482 0.576,-5.432 -0.985,-7.562 -1.166,-1.678 -3.003,-2.86 -5,-3.28 -0.634,-0.113 -1.273,-0.164 -1.912,-0.223 -1.017,-2.05 -1.39,-4.431 -0.879,-6.657"
       style="vector-effect:non-scaling-stroke;fill:url(#_lgradient_17);stroke:url(#_lgradient_18);stroke-width:1;stroke-linecap:butt;stroke-linejoin:miter;stroke-miterlimit:4"
       inkscape:connector-curvature="0" />
    <path
       id="path19"
       d="m 18.81,43.32 v 0 c 1.065,0.287 1.697,1.385 1.41,2.45 v 0 c -0.287,1.065 -1.385,1.697 -2.45,1.41 v 0 C 12.67,45.81 8.16,42.79 4.95,38.6 1.74,34.41 0,29.28 0,24 0,17.64 2.53,11.53 7.03,7.03 11.53,2.53 17.64,0 24,0 30.36,0 36.47,2.53 40.97,7.03 45.47,11.53 48,17.64 48,24 c 0,5.26 -1.73,10.37 -4.91,14.55 -3.19,4.18 -7.66,7.2 -12.73,8.6 v 0 c -1.065,0.293 -2.167,-0.335 -2.46,-1.4 v 0 c -0.293,-1.065 0.335,-2.167 1.4,-2.46 v 0 C 33.52,42.13 37.25,39.61 39.91,36.13 42.56,32.64 44,28.38 44,24 44,18.7 41.89,13.61 38.14,9.86 34.39,6.11 29.3,4 24,4 18.7,4 13.61,6.11 9.86,9.86 6.11,13.61 4,18.7 4,24 c 0,4.4 1.45,8.68 4.13,12.17 2.67,3.49 6.43,6.01 10.68,7.15 z"
       style="fill:url(#_lgradient_19)"
       inkscape:connector-curvature="0" />
  </g>
</svg>

<?xml version="1.0" encoding="UTF-8" standalone="no"?>
<!-- Generator: Gravit.io -->
<svg xmlns="http://www.w3.org/2000/svg" xmlns:xlink="http://www.w3.org/1999/xlink" style="isolation:isolate" viewBox="0 0 48 48" width="48pt" height="48pt"><linearGradient id="_lgradient_17" x1="0" y1="0.5" x2="1" y2="0.5" gradientTransform="matrix(27.825,0,0,30.267,12.085,7.03)" gradientUnits="userSpaceOnUse"><stop offset="0%" stop-opacity="1" style="stop-color:rgb(117,127,154)"/><stop offset="98.69565217391305%" stop-opacity="1" style="stop-color:rgb(215,221,232)"/></linearGradient><linearGradient id="_lgradient_18" x1="0" y1="0.5" x2="1" y2="0.5"><stop offset="0%" stop-opacity="1" style="stop-color:rgb(117,127,154)"/><stop offset="98.69565217391305%" stop-opacity="1" style="stop-color:rgb(215,221,232)"/></linearGradient><path d=" M 13.629 13.687 C 14.215 10.859 16.132 8.308 18.71 7.03 C 18.261 7.485 17.719 7.834 17.304 8.329 C 15.605 10.161 14.838 12.813 15.307 15.252 C 15.898 18.975 19.397 22.016 23.188 21.962 C 26.128 22.094 28.993 20.402 30.431 17.851 C 33.509 17.956 36.502 19.545 38.259 22.095 C 39.159 23.427 39.862 24.987 39.91 26.611 C 39.34 24.455 37.908 22.537 35.953 21.456 C 34.063 20.391 31.741 20.12 29.669 20.748 C 27.071 21.494 24.924 23.618 24.184 26.233 C 23.556 28.315 23.825 30.611 24.813 32.517 C 23.439 34.898 20.957 36.596 18.262 37.108 C 16.191 37.542 14.013 37.207 12.085 36.335 C 13.81 36.839 15.685 36.927 17.4 36.317 C 19.7 35.555 21.601 33.707 22.437 31.428 C 23.364 28.946 23.013 25.996 21.452 23.866 C 20.286 22.188 18.449 21.006 16.452 20.586 C 15.818 20.473 15.179 20.422 14.54 20.363 C 13.523 18.313 13.15 15.932 13.661 13.706" fill="url(#_lgradient_17)" vector-effect="non-scaling-stroke" stroke-width="1" stroke="url(#_lgradient_18)" stroke-linejoin="miter" stroke-linecap="butt" stroke-miterlimit="4"/><linearGradient id="_lgradient_19" x1="0" y1="0.5" x2="1" y2="0.5" gradientTransform="matrix(48,0,0,47.7,0,0)" gradientUnits="userSpaceOnUse"><stop offset="0%" stop-opacity="1" style="stop-color:rgb(117,127,154)"/><stop offset="98.69565217391305%" stop-opacity="1" style="stop-color:rgb(215,221,232)"/></linearGradient><path d=" M 18.81 43.32 L 18.81 43.32 C 19.875 43.607 20.507 44.705 20.22 45.77 L 20.22 45.77 C 19.933 46.835 18.835 47.467 17.77 47.18 L 17.77 47.18 C 12.67 45.81 8.16 42.79 4.95 38.6 C 1.74 34.41 0 29.28 0 24 C 0 17.64 2.53 11.53 7.03 7.03 C 11.53 2.53 17.64 0 24 0 C 30.36 0 36.47 2.53 40.97 7.03 C 45.47 11.53 48 17.64 48 24 C 48 29.26 46.27 34.37 43.09 38.55 C 39.9 42.73 35.43 45.75 30.36 47.15 L 30.36 47.15 C 29.295 47.443 28.193 46.815 27.9 45.75 L 27.9 45.75 C 27.607 44.685 28.235 43.583 29.3 43.29 L 29.3 43.29 C 33.52 42.13 37.25 39.61 39.91 36.13 C 42.56 32.64 44 28.38 44 24 C 44 18.7 41.89 13.61 38.14 9.86 C 34.39 6.11 29.3 4 24 4 C 18.7 4 13.61 6.11 9.86 9.86 C 6.11 13.61 4 18.7 4 24 C 4 28.4 5.45 32.68 8.13 36.17 C 10.8 39.66 14.56 42.18 18.81 43.32 Z " fill="url(#_lgradient_19)"/></svg>
